!!!OTL@@DE: Unterl&auml;nders Heimweh
!!!COM: Schw&auml;bisches Volkslied
!!!ODT: 1835
!!!OMD: Moderato
!!!LYR: Weigle, Gottlieb
!!!LDT: 1835
!!!OCL: Erk, Ludwig
!!!GCO: Deutscher Liederschatz, Band 1
**kern	**kern	**kern
*staff3	*staff2	*staff1
*Ipiano	*Ipiano	*Ivox
*>[A,A,B,B]	*>[A,A,B,B]	*>[A,A,B,B]
*>norep[A,B]	*>norep[A,B]	*>norep[A,B]
*>A	*>A	*>A
=1-	=1-	=1-
*clefF4	*clefG2	*clefG2
*k[b-e-]	*k[b-e-]	*k[b-e-]
*B-:	*B-:	*B-:
*M3/4	*M3/4	*M3/4
*MM110	*MM110	*MM110
2BB-/	4r	8d/L
*	*clefF4	*
.	.	8f/J
.	4F\ 4B-\ 4d\	8b-/L
.	.	8d/J
4r	4F\ 4B-\ 4d\	4f/
=2	=2	=2
2EE-/	4r	4e-/
.	4G\ 4B-\ 4e-\	4g/
4r	4G\ 4B-\ 4e-\	4g/
=3	=3	=3
2FF/	4r	8f/L
.	.	8a/J
.	4F\ 4A\ 4e-\	8cc\L
.	.	8ee-\J
4r	4F\ 4A\ 4e-\	8dd\L
.	.	8cc\J
=4	=4	=4
2BB-/	4r	2b-\
.	4F\ 4B-\ 4d\	.
4r	4F\ 4B-\ 4d\	4r
=5:|!|:	=5:|!|:	=5:|!|:
*>B	*>B	*>B
2BB-/	4r	4b-\
.	4F\ 4B-\ 4d\	4dd\
4r	4F\ 4B-\ 4d\	4ff\
=6	=6	=6
2FF/	4r	4.ee-\
.	4F\ 4A\ 4e-\	.
.	.	8dd\
4r	4F\ 4A\ 4e-\	4cc\
=7	=7	=7
2FF/	4r	4f/
.	4F\ 4A\ 4e-\	8a\L
.	.	8cc\J
4r	4F\ 4A\ 4e-\	4ee-\
=8	=8	=8
2BB-/	4r	4.dd\
.	4F\ 4B-\ 4d\	.
.	.	8cc\
4r	4F\ 4B-\ 4d\	4b-\
=9	=9	=9
2BBB-/	4r	8d/L
.	.	8f/J
.	4A-\ 4B-\ 4d\	8b-/L
.	.	8d/J
4r	4A-\ 4B-\ 4d\	4f/
=10	=10	=10
2EE-/	4r	4e-/
.	4G\ 4B-\ 4e-\	4g/
4r	4G\ 4B-\ 4e-\	4g/
=11	=11	=11
2FF/	4r	8f/L
.	.	8a/J
.	4F\ 4An\ 4e-\	8cc\L
.	.	8ee-\J
4r	4F\ 4A\ 4e-\	8dd\L
.	.	8cc\J
=12	=12	=12
2BB-/	4r	2b-\
.	4F\ 4B-\ 4d\	.
4r	4r	4r
==:|!	==:|!	==:|!
*-	*-	*-
!!!ENC: Craig Stuart Sapp
!!!END: 2004/06/03/
!!!EFL: 029/651
